!!!OTL: I Don't Know Why
!!!COM: Ahlert, Fred E.
!!!LAR: Frey, Hugo
!! "I Don't Know Why" by Fred E. Ahlert
!! from "Barbershop Memories" compiled and arranged by Hugo Frey
!! copyright 1975 by EMI Music Publ. Ltd.; p. 32; B- major
!! NOTE:  The second ending is encoded.
**kern	**kern	**kern	**kern
*Ivox	*Ivox	*Ivox	*Ivox
*M4/4	*M4/4	*M4/4	*M4/4
*B-:	*B-:	*B-:	*B-:
=1	=1	=1	=1
8BB-	8B-	8F	8d
8BB-	8B-	8F	8d
8BB-	8B-	8F	8d
[8BB-	[8B-	[8F	[8d
4.BB-]	4.B-]	4.F]	4.d]
8BB-	8B-	8F	8d
=2	=2	=2	=2
8BB-	8B-	8G	8d
8BB-	8B-	8G	8d
16BB-	16B-	16G	16d
16BB-	16B-	16G	16d
[8BB-	[8B-	[8G	[8d
2BB-]	2B-]	2G]	2d]
=3	=3	=3	=3
4.D	4.F	8A	4.f
.	.	8A	.
.	.	8A	.
[8C#	[8B-	[8A	[8en
2C#]	2B-]	8A]	2e]
.	.	8G	.
.	.	4A	.
=4	=4	=4	=4
4Cn	4B-	1G	4e-
8C	8B-	.	8e-
8C	8B-	.	8e-
2FF	2A	.	2e-
=5	=5	=5	=5
8C	8F	8A	8e-
8C	8F	8A	8e-
8C	8F	8A	8e-
[8C	[8F	[8A	[8e-
4.C]	4.F]	4.A]	4.e-]
8C	8F	8A	8e-
=6	=6	=6	=6
8C	8G	8B-	8e-
8C	8G	8B-	8e-
16C	16G	16B-	16e-
16C	16G	16B-	16e-
[8C	[8G	[8B-	[8e-
2C]	2G]	2B-]	2e-]
=7	=7	=7	=7
2F	[2A	8c	[2e-
.	.	8c	.
.	.	8c	.
.	.	[8c	.
2FF	8A]	8c]	4e-]
.	8G	8B-	.
.	[4F	4A	4c#
=8	=8	=8	=8
4BB-	4F]	2.G	4d
8BB-	8F	.	8d
8BB-	8F	.	8d
4BB-	4F	.	4d
8r	8r	8r	8r
8BB-	8G	8c#	8en
=9	=9	=9	=9
8BB-	8A-	8d	8f
8G	8B-	8c#	8en
8A-	8B-	8d	8f
8G	8B-	8c	8e-
8G	8Bn	8d	8f
4G	4B	4e-	4g
8D	8G	8Bn	8f
=10	=10	=10	=10
8G	2B-	2d	2en
8F#	.	.	.
8G	.	.	.
8C	.	.	.
4.Fn	4.A	4.c	4.e-
8C	8A	8F	8e-
=11	=11	=11	=11
8BB-	8F	8B-	8d
8BB-	8En	8A	8c#
8BB-	8F	8B-	8d
8C	8F#	8A	8e-
8C	8G	8B-	8en
4C	4B-	4d	4e
8C	8A	8c	8e
=12	=12	=12	=12
4C	4G	4B-	4e-
4C	4F	4A	4e-
4En	4B-	4G	4d
4E-;	4B-;	4G-;	4d-;
=13	=13	=13	=13
8BB-	8B-	8F	8dn
8BB-	8B-	8F	8d
8BB-	8B-	8F	8d
[8BB-	[8B-	[8F	[8d
4.BB-]	4.B-]	4.F]	4.d]
8AA-	8B-	8F	8d
=14	=14	=14	=14
8GG	8Bn	8G	8e-
8GG	8B	8G	8e-
16En	16A#	16G	16c#
16En	16A#	16G	16c#
[8F	[8B-	[8G	[8d
4.F]	2B-]	2G]	2d]
8D	.	.	.
=15	=15	=15	=15
8C	8G	8e-	8g
8C	8c	8e-	8g
8C	8Bn	8e-	8g
[8C	[8B-	[8e-	[8g-
8C]	8B-]	8e-]	8g-]
8G-	8B-	8c	8e-
4F	4A	4d	4f
=16	=16	=16	=16
2.BB-	2.F	2.B-	2.d
4r	4r	4r	4r
==	==	==	==
*-	*-	*-	*-
